X:1
T:Unus ex discipulis - Croce
T:James Gibb edtions
%%score [ 1 2 3 4 ]
L:1/8
M:4/2
K:C
V:1 treble nm="Soprano" snm="S"
V:2 treble nm="Alto" snm="A"
V:3 treble-8 nm="Tenor" snm="T"
V:4 bass nm="Bass" snm="B"
V:1
"^Unus ex discipulis""^Giovanni Croce\n(1557-1609)" E8 E4 E8 | z4 E4 F6 F2 | G8 G8 | G4 G6 G2 G4 | %4
w: U- nus ex|di- sci- pu-|lis me-|is tra- det me|
 E12 D4 | E8 z4 G4 | G8 G4 F4- | z8[K:treble] F4 F4 | F4 E4 (D6 E2 | F8) E8 | A12 A4 | A4 F8 F4 | %12
w: ho- di-|e. Vae|il- li per|* quem|tra- dar e\- *|* go.|Me- li-|us il- li|
 G8 G8 | z8 z4 G4 | G4 ^F4 z8 | G8 F4 (E4- | E4 D4) E8- | E8- E8 | z4 A4 A4 ^G4 | (A6 G2 F4) F4 | %20
w: e- rat,|si|na- tus|non fu- is\-|* * set,||si na- tus|non * * fu-|
 F8 E8 | z8 |] %22
w: is- set.||
V:2
 B,8 ^C4 C8 | z4 ^C4 D6 D2 | E8 D8 | E4 E6 E2 D4 | (C6 B,2 A,4) A,4 | B,8 z4 E4 | D8 E4 C4- | %7
w: U- nus ex|di- sci- pu-|lis me-|is tra- det me|ho\- * * di-|e. Vae|il- li per|
 z8[K:treble] C4 C4 | D4 E4 (F6 E2 | D8) ^C8 | E12 E4 | F4 D8 D4 | E8 D8- | D8 z4 D4 | %14
w: * quem|tra- dar e\- *|* go.|Me- li-|us il- li|e- rat,|* si|
 D4 ^C4 D6 =C2 | (B,4 C4) A,4 C4 | C4 A,4 C4 B,4 | A,8 E,8 | z4 E4 E4 D4 | (E6 D2 ^C4) D4 | %20
w: na- tus non fu-|is\- * set, si|na- tus non fu-|is- set,|si na- tus|non * * fu-|
 D8 ^C8 | z8 |] %22
w: is- set.||
V:3
 ^G8 A4 A8 | z4 A4 A6 A2 | c4 (c4- c4 B2 A2 | B8) c4 c6 | z2 c2 B4 A12 | z4 A4 ^G8 | z4 c4 B8 | %7
w: U- nus ex|di- sci- pu-|lis me\- * * *|* is tra-|det me ho-|di- e.|Vae il-|
 c4 A4-[K:treble-8] A4 A4 | A4 A4 A8 | A8 ^c12 | z4 ^c4 d4 A8 | z4 A4 c8 | B4 B4 B4 A4 | %13
w: li per * quem|tra- dar e-|go. Me-|li- us il-|li e-|rat, si na- tus|
 B4 B4 (B4 A2 G2 | A8) z8 | G8 z8 | z4 A4 A4 G4 | c4 c4 B8 | A8 (A6 B2 | c4) B4 A8 | A8- A8 | z8 |] %22
w: non fu- is\- * *||set,|si na- tus|non fu- is-|set, non *|* fu- is-|set. *||
V:4
 E,8 A,,4 A,,8 | z4 A,,4 D,6 D,2 | C,8 G,8 | C,4 C,6 C,2 G,4 | A,8 F,8 | E,8 z4 C,4 | %6
w: U- nus ex|di- sci- pu-|lis me-|is tra- det me|ho- di-|e. Vae|
 G,8 C,4 F,4- | z8[K:bass] F,4 F,4 | D,4 ^C,4 D,8 | A,,8 A,12 | z4 A,4 D,4 D,8 | z4 D,4 C,8 | %12
w: il- li per|* quem|tra- dar e-|go. Me-|li- us il-|li e-|
 G,4 G,4 G,4 ^F,4 | G,4 G,4 E,8 | D,4 D,4 z8 | E,4 C,4 D,4 E,4 | F,8 E,8 | z4 A,4 A,4 ^G,4 | %18
w: rat, si na- tus|non fu- is-|set, si|na- tus non fu-|is- set,|si na- tus|
 (A,6 G,2 F,4) F,4 | E,8 A,,4 D,4- | D,4 D,4 D,8 | A,,8 |] %22
w: non * * fu-|is- set, non|* fu- is-|set.|

